X:1
T:Chihito Theme song
T:Chihiro Theme Song
T:Arranged by Louise Marinho
C:Louise Marinho
%%score { 1 | 2 }
L:1/8
M:6/8
K:F
V:1 treble nm="Piano" snm="Pno."
V:2 bass 
V:1
 z2 z2 ((FG) | AF.c) z2 (A | G2 c2 G2) | (FDA z2 F | E2) z2 (FE | !>!D2 E2 FG | C2 F2 GA | %7
 .B2) (B AGF | !>!G2) z2 (FG | AF.c) z2 (A | G2 c2 G2 | F2 !>!D2 EF | C2) z2 (C2 | D2 E2 FG) | %14
 (C2 F2 GA | .B2) B AG.F | !fermata!F2 z4 | z4 AB | .c2 .c2 .c2 | .c2 (c dcB | .A2) .A2 .A2 | %21
 (ABA GFE) | !>!D2 E2 FG | (C2 F2 GA | .G2) G AGA | !>!G4 AB | .c2 .c2 .c2 | .c2 (c dcB | %28
 .A2) .A2 .A2 | (ABA GFE | !>!D2) E2 z F | !>!C2 z2 C2 | D2 E2 FG | C2 F2 (GA | G3) GGF | %35
!mp!!>(! !fermata!F6-!>)! |!p! F6 | z2 z4 |] %38
V:2
 F,2 C2- [A,C]2 | F,2 C2- [A,C]2 | E,2 C2- [G,C]2 | D,2 A,2- [F,A,]2 | C,2 G,2- [E,G,]2 | %5
 B,,2 G,2- [D,G,]2 | A,,2 F,2- [C,F,]2 | B,,2 G,2- [D,G,]2 | C,2 G,2 F,2 | F,2 C2- [A,C]2 | %10
 E,2 C2- [G,C]2 | D,2 A,2- [F,A,]2 | C,2 G,2- [E,G,]2 | B,,2 G,2- [D,G,]2 | A,,2 F,2- [C,F,]2 | %15
 B,,2 G,2- [D,G,]2 | F,2 C2- [A,C]2 | F,2 C2- [A,C]2 | F,2 C2 A,2 | F,2 C2- [A,C]2 | D,2 A,2 F,2 | %21
 D,2 A,2- [F,A,]2 | B,,2 G,2- [D,G,]2 | A,,2 F,2- [C,F,]2 | C,2 G,2- [E,G,]2 | C,2 G,2- [E,G,]2 | %26
 F,2 C2 A,2 | F,2 C2- [A,C]2 | D,2 A,2 F,2 | D,2 A,2- [F,A,]2 | B,,2 G,2- [D,G,]2 | %31
 A,,2 F,2- [C,F,]2 | G,,2 D,2- [B,,D,]2 | A,,2 F,2- [C,F,]2 | G,,2 E,2- [C,E,]2 | %35
 F,,2 C,2- [A,,C,]2 | F,,2 C,2- [A,,C,]2 | F,,6 |] %38

